X:1
T:Ale Giv'a (incomplete)
M:3/4
L:1/8
Q:124
S:Jewish
K:Em
|"Tempo = 62" EA G2F2| E4 D2|E3 F G2|AG F2 FG| A3 G AF|G3 F AG|F3 E GF|
E6|!G4 F2|E4 D2|E3 F G2|AG F2 FG|A3 GAF|G3 F AG|F3 E GF|E6|!G4 F2|E4 D2|
E3 F GE|cdcB AG|A4 G2|F2 EF D2|G3 B A2|E6|!BcBA Bc|dedc BA|BcBA GB|AE A4
|! ABAG Ae|dedc BA|BAGF ED|E6||
